apps/scalable/alsamixer-gui.svg

<svg height="48" viewBox="0 0 48 48.000001" width="48" xmlns="http://www.w3.org/2000/svg" xmlns:xlink="http://www.w3.org/1999/xlink"><linearGradient id="a" gradientUnits="userSpaceOnUse" x1="-71.940626361738" x2="-71.691558886769" y1="1046.885971152576" y2="1004.544293292996"><stop offset="0" stop-color="#808080"/><stop offset="1" stop-color="#8a8a8e"/></linearGradient><g transform="translate(0 -1004.3622)"><rect fill-opacity=".490196" height="43.435341" rx="2.171767" transform="matrix(.99565147 -.09315658 .09315658 .99565147 0 0)" width="43.435341" x="-93.625572" y="1004.9566"/><rect fill="url(#a)" height="43.3955" rx="2.169775" transform="matrix(.99565147 -.09315658 .09315658 .99565147 0 0)" width="43.3955" x="-93.629623" y="1004.0086"/><path d="m37.291016 5.9199219-.527344.0507812c-.218778.02-.303489 1.0013188-.191406 2.1992188l.40039 4.2714841 2.226563 2.226563-.998047.957031c-.111873.107329.140678.549608.564453.994141l-.083984-.083985.144531 1.539063-1.464844-1.464844.007813.089844-9.816407-9.8164065c-.0307-.031-.060333-.0459689-.089843-.0429687l-.527344.0488281c-.218778.02-.305442 1.0032718-.193359 2.2011719l.798828 8.5292972-9.816407-9.8164066c-.03082-.031-.062227-.0459688-.091797-.0429688l-.52539.0488282c-.218778.0199999-.305442 1.0013202-.19336 2.1992182l.798829 8.53125-9.8164066-9.8164058c-.030819-.0309998-.0622319-.0459687-.0917969-.0429687l-.5273437.0488281c-.2187774.021-.3034885 1.00132-.1914063 2.1992184l.09375.994141 2.6347656 2.634766-1.078125 1.033203c-.0651348.062489.0150013.24892.1582031.472656l.1464844 1.554688-1.4667968-1.466797 2.2011718 23.537109c.096936 1.036.3086244 1.884831.5058594 2.082031l4.466797 4.466797 30.648437-2.867187c1.196829-.11198 2.070964-1.166453 1.958985-2.363282l-2.587891-27.65625-7.386719-7.3867184c-.03076-.031-.060343-.0459687-.089843-.0429687z" fill-opacity=".078431" transform="translate(0 1004.3622)"/><g fill="#2ad4ff"><path d="m37.291016 1010.2821-.527344.051c-.218778.02-.303489 1.0013-.191406 2.1992l.40039 4.2715a2.2211254 2.2211254 0 0 0 -1.283203 2.2227 2.2211254 2.2211254 0 0 0 1.671875 1.9453l1.900391 20.3203c.112082 1.1979.378879 2.1455.597656 2.125l.527344-.049c.218777-.02.303488-1.0013.191406-2.1993l-1.896484-20.2714a2.2211254 2.2211254 0 0 0 1.429687-2.2852 2.2211254 2.2211254 0 0 0 -1.828125-1.9785l-.394531-4.2246c-.112082-1.198-.378879-2.1474-.597656-2.127z"/><path d="m27.462891 1011.202-.527344.049c-.218778.02-.305442 1.0032-.193359 2.2011l1.755859 18.7696a2.2211254 2.2211254 0 0 0 -1.363281 2.2578 2.2211254 2.2211254 0 0 0 1.759765 1.9668l.539063 5.7637c.112082 1.1979.378879 2.1474.597656 2.1269l.525391-.051c.218777-.02.305441-1.0013.193359-2.1992l-.539062-5.7715a2.2211254 2.2211254 0 0 0 1.347656-2.25 2.2211254 2.2211254 0 0 0 -1.742188-1.9629l-1.757812-18.7754c-.112082-1.1979-.376926-2.1454-.595703-2.125z"/><path d="m17.632812 1012.122-.52539.049c-.218778.02-.305442 1.0013-.19336 2.1992l2.498047 26.7031a2.2211254 2.2211254 0 0 0 -1.373047 2.2598 2.2211254 2.2211254 0 0 0 2.417969 2.0059 2.2211254 2.2211254 0 0 0 2.00586-2.42 2.2211254 2.2211254 0 0 0 -1.732422-1.9609l-2.5-26.7109c-.112082-1.198-.378879-2.1455-.597657-2.125z"/><path d="m7.8046875 1013.0419-.5273437.049c-.2187774.021-.3034885 1.0013-.1914063 2.1992l.09375.9942a2.2211254 2.2211254 0 0 0 -1.3691406 2.2597 2.2211254 2.2211254 0 0 0 1.7636719 1.9688l2.2011718 23.5371c.1120822 1.1979.3788784 2.1455.5976564 2.125l.527344-.049c.218777-.021.303488-1.0013.191406-2.1992l-2.201172-23.5469a2.2211254 2.2211254 0 0 0 1.341797-2.25 2.2211254 2.2211254 0 0 0 -1.7363282-1.961l-.09375-1.0019c-.1120822-1.1979-.3788789-2.1455-.5976563-2.125z"/></g></g></svg>

<?xml version="1.0" encoding="UTF-8" standalone="no"?>
<!-- Created with Inkscape (http://www.inkscape.org/) -->

<svg
   xmlns:osb="http://www.openswatchbook.org/uri/2009/osb"
   xmlns:dc="http://purl.org/dc/elements/1.1/"
   xmlns:cc="http://creativecommons.org/ns#"
   xmlns:rdf="http://www.w3.org/1999/02/22-rdf-syntax-ns#"
   xmlns:svg="http://www.w3.org/2000/svg"
   xmlns="http://www.w3.org/2000/svg"
   xmlns:xlink="http://www.w3.org/1999/xlink"
   xmlns:sodipodi="http://sodipodi.sourceforge.net/DTD/sodipodi-0.dtd"
   xmlns:inkscape="http://www.inkscape.org/namespaces/inkscape"
   sodipodi:docname="alsamixer-gui.svg"
   inkscape:version="0.91 r13725"
   version="1.1"
   id="svg2"
   viewBox="0 0 48 48.000001"
   height="48"
   width="48">
  <sodipodi:namedview
     units="px"
     showgrid="false"
     inkscape:current-layer="layer1"
     inkscape:document-units="px"
     inkscape:cy="19.739366"
     inkscape:cx="20.34391"
     inkscape:zoom="7.9195959"
     inkscape:pageshadow="2"
     inkscape:pageopacity="0"
     borderopacity="1.0"
     bordercolor="#666666"
     pagecolor="#dcdcdc"
     id="base" />
  <defs
     id="defs4">
    <linearGradient
       inkscape:collect="always"
       id="linearGradient4192">
      <stop
         style="stop-color:#808080;stop-opacity:1;"
         offset="0"
         id="stop4194" />
      <stop
         style="stop-color:#8a8a8e;stop-opacity:1"
         offset="1"
         id="stop4196" />
    </linearGradient>
    <linearGradient
       inkscape:collect="always"
       xlink:href="#linearGradient4192"
       id="linearGradient4198"
       x1="23.991123"
       y1="1049.8368"
       x2="24.24366"
       y2="1006.9053"
       gradientUnits="userSpaceOnUse"
       gradientTransform="matrix(0.98626132,0,0,0.98626132,-95.602143,11.472543)" />
    <linearGradient
       osb:paint="gradient"
       id="linearGradient4207">
      <stop
         id="stop3371"
         offset="0"
         style="stop-color:#3498db;stop-opacity:1;" />
      <stop
         id="stop3373"
         offset="1"
         style="stop-color:#3498db;stop-opacity:0;" />
    </linearGradient>
  </defs>
  <metadata
     id="metadata7">
    <rdf:RDF>
      <cc:Work
         rdf:about="">
        <dc:format>image/svg+xml</dc:format>
        <dc:type
           rdf:resource="http://purl.org/dc/dcmitype/StillImage" />
        <dc:title />
      </cc:Work>
    </rdf:RDF>
  </metadata>
  <g
     inkscape:label="Layer 1"
     inkscape:groupmode="layer"
     id="layer1"
     transform="translate(0,-1004.3622)">
    <g
       id="g3231">
      <g
         id="g3227">
        <rect
           ry="2.171767"
           rx="2.171767"
           y="1004.9566"
           x="-93.625572"
           height="43.435341"
           width="43.435341"
           id="rect4135"
           style="fill:#000000;fill-opacity:0.49019608;stroke:none;stroke-opacity:1"
           transform="matrix(0.99565147,-0.09315658,0.09315658,0.99565147,0,0)" />
        <rect
           style="fill:url(#linearGradient4198);fill-opacity:1;stroke:none;stroke-opacity:1"
           id="rect4133"
           width="43.3955"
           height="43.3955"
           x="-93.629623"
           y="1004.0086"
           rx="2.169775"
           ry="2.169775"
           transform="matrix(0.99565147,-0.09315658,0.09315658,0.99565147,0,0)" />
      </g>
      <g
         id="g3219">
        <path
           style="fill:#000000;fill-opacity:0.07843138;stroke:none;stroke-opacity:1"
           clip-path="none"
           d="M 37.291016 5.9199219 L 36.763672 5.9707031 C 36.544894 5.9907031 36.460183 6.9720219 36.572266 8.1699219 L 36.972656 12.441406 L 39.199219 14.667969 L 38.201172 15.625 C 38.089299 15.732329 38.34185 16.174608 38.765625 16.619141 L 38.681641 16.535156 L 38.826172 18.074219 L 37.361328 16.609375 L 37.369141 16.699219 L 27.552734 6.8828125 C 27.522034 6.8518125 27.492401 6.8368436 27.462891 6.8398438 L 26.935547 6.8886719 C 26.716769 6.9086719 26.630105 7.8919437 26.742188 9.0898438 L 27.541016 17.619141 L 17.724609 7.8027344 C 17.693789 7.7717344 17.662382 7.7567656 17.632812 7.7597656 L 17.107422 7.8085938 C 16.888644 7.8285937 16.80198 8.809914 16.914062 10.007812 L 17.712891 18.539062 L 7.8964844 8.7226562 C 7.8656654 8.6916564 7.8342525 8.6766875 7.8046875 8.6796875 L 7.2773438 8.7285156 C 7.0585664 8.7495156 6.9738553 9.7298356 7.0859375 10.927734 L 7.1796875 11.921875 L 9.8144531 14.556641 L 8.7363281 15.589844 C 8.6711933 15.652333 8.7513294 15.838764 8.8945312 16.0625 L 9.0410156 17.617188 L 7.5742188 16.150391 L 9.7753906 39.6875 C 9.8723266 40.7235 10.084015 41.572331 10.28125 41.769531 L 14.748047 46.236328 L 45.396484 43.369141 C 46.593313 43.257161 47.467448 42.202688 47.355469 41.005859 L 44.767578 13.349609 L 37.380859 5.9628906 C 37.350099 5.9318906 37.320516 5.9169219 37.291016 5.9199219 z "
           transform="translate(0,1004.3622)"
           id="path3260" />
        <g
           id="g3213">
          <path
             inkscape:connector-curvature="0"
             style="fill:#2ad4ff;fill-opacity:1;stroke:none;stroke-opacity:1"
             d="m 37.291016,1010.2821 -0.527344,0.051 c -0.218778,0.02 -0.303489,1.0013 -0.191406,2.1992 l 0.40039,4.2715 a 2.2211254,2.2211254 0 0 0 -1.283203,2.2227 2.2211254,2.2211254 0 0 0 1.671875,1.9453 l 1.900391,20.3203 c 0.112082,1.1979 0.378879,2.1455 0.597656,2.125 l 0.527344,-0.049 c 0.218777,-0.02 0.303488,-1.0013 0.191406,-2.1993 l -1.896484,-20.2714 a 2.2211254,2.2211254 0 0 0 1.429687,-2.2852 2.2211254,2.2211254 0 0 0 -1.828125,-1.9785 l -0.394531,-4.2246 c -0.112082,-1.198 -0.378879,-2.1474 -0.597656,-2.127 z"
             id="rect4143" />
          <path
             inkscape:connector-curvature="0"
             style="fill:#2ad4ff;fill-opacity:1;stroke:none;stroke-opacity:1"
             d="m 27.462891,1011.202 -0.527344,0.049 c -0.218778,0.02 -0.305442,1.0032 -0.193359,2.2011 l 1.755859,18.7696 a 2.2211254,2.2211254 0 0 0 -1.363281,2.2578 2.2211254,2.2211254 0 0 0 1.759765,1.9668 l 0.539063,5.7637 c 0.112082,1.1979 0.378879,2.1474 0.597656,2.1269 l 0.525391,-0.051 c 0.218777,-0.02 0.305441,-1.0013 0.193359,-2.1992 l -0.539062,-5.7715 a 2.2211254,2.2211254 0 0 0 1.347656,-2.25 2.2211254,2.2211254 0 0 0 -1.742188,-1.9629 l -1.757812,-18.7754 c -0.112082,-1.1979 -0.376926,-2.1454 -0.595703,-2.125 z"
             id="rect4141" />
          <path
             inkscape:connector-curvature="0"
             style="fill:#2ad4ff;fill-opacity:1;stroke:none;stroke-opacity:1"
             d="m 17.632812,1012.122 -0.52539,0.049 c -0.218778,0.02 -0.305442,1.0013 -0.19336,2.1992 l 2.498047,26.7031 a 2.2211254,2.2211254 0 0 0 -1.373047,2.2598 2.2211254,2.2211254 0 0 0 2.417969,2.0059 2.2211254,2.2211254 0 0 0 2.00586,-2.42 2.2211254,2.2211254 0 0 0 -1.732422,-1.9609 l -2.5,-26.7109 c -0.112082,-1.198 -0.378879,-2.1455 -0.597657,-2.125 z"
             id="rect4139" />
          <path
             inkscape:connector-curvature="0"
             style="fill:#2ad4ff;fill-opacity:1;stroke:none;stroke-opacity:1"
             d="m 7.8046875,1013.0419 -0.5273437,0.049 c -0.2187774,0.021 -0.3034885,1.0013 -0.1914063,2.1992 l 0.09375,0.9942 a 2.2211254,2.2211254 0 0 0 -1.3691406,2.2597 2.2211254,2.2211254 0 0 0 1.7636719,1.9688 l 2.2011718,23.5371 c 0.1120822,1.1979 0.3788784,2.1455 0.5976564,2.125 l 0.527344,-0.049 c 0.218777,-0.021 0.303488,-1.0013 0.191406,-2.1992 l -2.201172,-23.5469 a 2.2211254,2.2211254 0 0 0 1.341797,-2.25 2.2211254,2.2211254 0 0 0 -1.7363282,-1.961 l -0.09375,-1.0019 c -0.1120822,-1.1979 -0.3788789,-2.1455 -0.5976563,-2.125 z"
             id="rect4137" />
        </g>
      </g>
    </g>
  </g>
  <style
     id="style26"
     type="text/css">
	.specularity {opacity:0.5;}
	.low-specularity {opacity:0.25;}
	.full-specularity {opacity:1;}
	.black {fill:#000000;}
	.white {fill:#ffffff;}
	.outline-big {stroke-width:16;stroke:none;opacity:0.1;fill:none;}
	.outline-small {stroke-width:8;stroke:none;opacity:0.2;fill:none;}
	.stroke-highlight {fill:none;stroke:none;opacity:0.2;}
       	.base-shadow 	{fill:black;opacity:75;}
	</style>
  <style
     id="style26-7"
     type="text/css">
	.specularity {opacity:0.5;}
	.low-specularity {opacity:0.25;}
	.full-specularity {opacity:1;}
	.black {fill:#000000;}
	.white {fill:#ffffff;}
	.outline-big {stroke-width:16;stroke:none;opacity:0.1;fill:none;}
	.outline-small {stroke-width:8;stroke:none;opacity:0.2;fill:none;}
	.stroke-highlight {fill:none;stroke:none;opacity:0.2;}
       	.base-shadow 	{fill:black;opacity:75;}
	</style>
</svg>
